app/assets/images/icons/active/taxi.svg

<?xml version="1.0" encoding="UTF-8" standalone="no"?>
<svg width="32px" height="232px" viewBox="0 0 32 232" version="1.1" xmlns="http://www.w3.org/2000/svg" xmlns:xlink="http://www.w3.org/1999/xlink" xmlns:sketch="http://www.bohemiancoding.com/sketch/ns">
    <title>taxi</title>
    <description>Created with Sketch (http://www.bohemiancoding.com/sketch)</description>
    <defs></defs>
    <g id="Transport" stroke="none" stroke-width="1" fill="none" fill-rule="evenodd" sketch:type="MSPage">
        <path d="M28.5,145.073735 L28.5,138.172326 C28.5,137.559382 28.293,137.048092 27.885,136.631411 C27.473,136.220768 26.975,136.014441 26.389,136.014441 L25.897,136.014441 L23.893,130.388237 C23.705,129.892044 23.465,129.468318 23.174,129.114038 C22.879,128.759758 22.486,128.581612 21.994,128.581612 L19.322,128.581612 L19.322,126.601873 C19.322,126.438824 19.269,126.294898 19.164,126.175127 C19.059,126.061395 18.924,126 18.76,126 L13.238,126 C13.076,126 12.941,126.061395 12.836,126.175127 C12.728,126.294898 12.678,126.438824 12.678,126.601873 L12.678,128.581612 L9.865,128.581612 C9.371,128.581612 8.978,128.76781 8.685,129.134168 C8.393,129.498512 8.152,129.9162 7.965,130.388237 L5.963,136.014441 L5.647,136.014441 C5.035,136.014441 4.525,136.220768 4.115,136.631411 C3.705,137.048092 3.5,137.559382 3.5,138.172326 L3.5,145.073735 L5.33,145.073735 C5.307,145.357562 5.307,145.623271 5.33,145.865832 C5.353,146.116445 5.363,146.298617 5.363,146.418388 L5.363,146.558288 C5.363,147.244705 5.609,147.822423 6.102,148.292447 C6.596,148.763478 7.18,149 7.859,149 C8.541,149 9.125,148.763478 9.619,148.292447 C10.109,147.822423 10.357,147.244705 10.357,146.558288 L10.357,146.418388 C10.357,146.298617 10.361,146.163749 10.373,146.009758 C10.385,145.856774 10.393,145.675608 10.393,145.463242 L10.393,145.073735 L21.432,145.073735 C21.455,145.402853 21.467,145.697751 21.467,145.956415 L21.467,146.418388 L21.467,146.558288 C21.467,147.244705 21.707,147.822423 22.187,148.292447 C22.668,148.763478 23.248,149 23.928,149 C24.631,149 25.225,148.763478 25.703,148.292447 C26.184,147.822423 26.424,147.244705 26.424,146.558288 L26.424,146.418388 C26.424,146.298617 26.437,146.116445 26.461,145.865832 C26.484,145.623271 26.494,145.357562 26.494,145.073735 L28.5,145.073735 L28.5,145.073735 L28.5,145.073735 L28.5,145.073735 Z M7.894,138.739979 C8.435,138.739979 8.902,138.93121 9.303,139.324742 C9.701,139.712235 9.898,140.189305 9.898,140.756958 C9.898,141.298442 9.701,141.769473 9.303,142.171057 C8.902,142.571635 8.435,142.769911 7.894,142.769911 C7.334,142.769911 6.859,142.571635 6.471,142.171057 C6.084,141.769473 5.891,141.298442 5.891,140.756958 C5.891,140.189305 6.084,139.712235 6.471,139.324742 C6.859,138.93121 7.334,138.739979 7.894,138.739979 C7.894,138.739979 7.334,138.739979 7.894,138.739979 L7.894,138.739979 L7.894,138.739979 Z M23.084,135.730614 L9.092,135.730614 L10.603,131.060564 L21.572,131.060564 L23.084,135.730614 L23.084,135.730614 L23.084,135.730614 L23.084,135.730614 Z M23.822,138.739979 C24.361,138.739979 24.832,138.93121 25.23,139.324742 C25.627,139.712235 25.826,140.189305 25.826,140.756958 C25.826,141.298442 25.627,141.769473 25.23,142.171057 C24.832,142.571635 24.361,142.769911 23.822,142.769911 C23.26,142.769911 22.785,142.571635 22.398,142.171057 C22.012,141.769473 21.818,141.298442 21.818,140.756958 C21.818,140.189305 22.012,139.712235 22.398,139.324742 C22.785,138.93121 23.26,138.739979 23.822,138.739979 L23.822,138.739979 Z M23.822,138.739979" id="taxi--white" fill="#206FAC" sketch:type="MSShapeGroup"></path>
        <path d="M28.5,105.073735 L28.5,98.1723263 C28.5,97.5593821 28.293,97.0480921 27.885,96.6314108 C27.473,96.2207684 26.975,96.0144407 26.389,96.0144407 L25.897,96.0144407 L23.893,90.3882374 C23.705,89.8920445 23.465,89.4683179 23.174,89.1140382 C22.879,88.7597584 22.486,88.5816121 21.994,88.5816121 L19.322,88.5816121 L19.322,86.6018729 C19.322,86.4388237 19.269,86.2948976 19.164,86.1751269 C19.059,86.0613951 18.924,86 18.76,86 L13.238,86 C13.076,86 12.941,86.0613951 12.836,86.1751269 C12.728,86.2948976 12.678,86.4388237 12.678,86.6018729 L12.678,88.5816121 L9.865,88.5816121 C9.371,88.5816121 8.978,88.7678103 8.685,89.1341677 C8.393,89.4985122 8.152,89.9161999 7.965,90.3882374 L5.963,96.0144407 L5.647,96.0144407 C5.035,96.0144407 4.525,96.2207684 4.115,96.6314108 C3.705,97.0480921 3.5,97.5593821 3.5,98.1723263 L3.5,105.073735 L5.33,105.073735 C5.307,105.357562 5.307,105.623271 5.33,105.865832 C5.353,106.116445 5.363,106.298617 5.363,106.418388 L5.363,106.558288 C5.363,107.244705 5.609,107.822423 6.102,108.292447 C6.596,108.763478 7.18,109 7.859,109 C8.541,109 9.125,108.763478 9.619,108.292447 C10.109,107.822423 10.357,107.244705 10.357,106.558288 L10.357,106.418388 C10.357,106.298617 10.361,106.163749 10.373,106.009758 C10.385,105.856774 10.393,105.675608 10.393,105.463242 L10.393,105.073735 L21.432,105.073735 C21.455,105.402853 21.467,105.697751 21.467,105.956415 L21.467,106.418388 L21.467,106.558288 C21.467,107.244705 21.707,107.822423 22.187,108.292447 C22.668,108.763478 23.248,109 23.928,109 C24.631,109 25.225,108.763478 25.703,108.292447 C26.184,107.822423 26.424,107.244705 26.424,106.558288 L26.424,106.418388 C26.424,106.298617 26.437,106.116445 26.461,105.865832 C26.484,105.623271 26.494,105.357562 26.494,105.073735 L28.5,105.073735 L28.5,105.073735 L28.5,105.073735 L28.5,105.073735 Z M7.894,98.739979 C8.435,98.739979 8.902,98.9312095 9.303,99.3247418 C9.701,99.7122353 9.898,100.189305 9.898,100.756958 C9.898,101.298442 9.701,101.769473 9.303,102.171057 C8.902,102.571635 8.435,102.769911 7.894,102.769911 C7.334,102.769911 6.859,102.571635 6.471,102.171057 C6.084,101.769473 5.891,101.298442 5.891,100.756958 C5.891,100.189305 6.084,99.7122353 6.471,99.3247418 C6.859,98.9312095 7.334,98.739979 7.894,98.739979 C7.894,98.739979 7.334,98.739979 7.894,98.739979 L7.894,98.739979 L7.894,98.739979 Z M23.084,95.7306144 L9.092,95.7306144 L10.603,91.0605636 L21.572,91.0605636 L23.084,95.7306144 L23.084,95.7306144 L23.084,95.7306144 L23.084,95.7306144 Z M23.822,98.739979 C24.361,98.739979 24.832,98.9312095 25.23,99.3247418 C25.627,99.7122353 25.826,100.189305 25.826,100.756958 C25.826,101.298442 25.627,101.769473 25.23,102.171057 C24.832,102.571635 24.361,102.769911 23.822,102.769911 C23.26,102.769911 22.785,102.571635 22.398,102.171057 C22.012,101.769473 21.818,101.298442 21.818,100.756958 C21.818,100.189305 22.012,99.7122353 22.398,99.3247418 C22.785,98.9312095 23.26,98.739979 23.822,98.739979 L23.822,98.739979 Z M23.822,98.739979" id="taxi--subdued-grey" fill="#FFFFFF" sketch:type="MSShapeGroup"></path>
        <path d="M28.5,65.0737353 L28.5,58.1723263 C28.5,57.5593821 28.293,57.0480921 27.885,56.6314108 C27.473,56.2207684 26.975,56.0144407 26.389,56.0144407 L25.897,56.0144407 L23.893,50.3882374 C23.705,49.8920445 23.465,49.4683179 23.174,49.1140382 C22.879,48.7597584 22.486,48.5816121 21.994,48.5816121 L19.322,48.5816121 L19.322,46.6018729 C19.322,46.4388237 19.269,46.2948976 19.164,46.1751269 C19.059,46.0613951 18.924,46 18.76,46 L13.238,46 C13.076,46 12.941,46.0613951 12.836,46.1751269 C12.728,46.2948976 12.678,46.4388237 12.678,46.6018729 L12.678,48.5816121 L9.865,48.5816121 C9.371,48.5816121 8.978,48.7678103 8.685,49.1341677 C8.393,49.4985122 8.152,49.9161999 7.965,50.3882374 L5.963,56.0144407 L5.647,56.0144407 C5.035,56.0144407 4.525,56.2207684 4.115,56.6314108 C3.705,57.0480921 3.5,57.5593821 3.5,58.1723263 L3.5,65.0737353 L5.33,65.0737353 C5.307,65.3575617 5.307,65.6232715 5.33,65.8658323 C5.353,66.116445 5.363,66.2986172 5.363,66.4183879 L5.363,66.5582881 C5.363,67.2447051 5.609,67.8224225 6.102,68.2924471 C6.596,68.763478 7.18,69 7.859,69 C8.541,69 9.125,68.763478 9.619,68.2924471 C10.109,67.8224225 10.357,67.2447051 10.357,66.5582881 L10.357,66.4183879 C10.357,66.2986172 10.361,66.1637493 10.373,66.0097584 C10.385,65.856774 10.393,65.6756083 10.393,65.4632417 L10.393,65.0737353 L21.432,65.0737353 C21.455,65.4028531 21.467,65.6977507 21.467,65.9564152 L21.467,66.4183879 L21.467,66.5582881 C21.467,67.2447051 21.707,67.8224225 22.187,68.2924471 C22.668,68.763478 23.248,69 23.928,69 C24.631,69 25.225,68.763478 25.703,68.2924471 C26.184,67.8224225 26.424,67.2447051 26.424,66.5582881 L26.424,66.4183879 C26.424,66.2986172 26.437,66.116445 26.461,65.8658323 C26.484,65.6232715 26.494,65.3575617 26.494,65.0737353 L28.5,65.0737353 L28.5,65.0737353 L28.5,65.0737353 L28.5,65.0737353 Z M7.894,58.739979 C8.435,58.739979 8.902,58.9312095 9.303,59.3247418 C9.701,59.7122353 9.898,60.1893051 9.898,60.7569578 C9.898,61.2984421 9.701,61.7694731 9.303,62.1710572 C8.902,62.5716349 8.435,62.7699107 7.894,62.7699107 C7.334,62.7699107 6.859,62.5716349 6.471,62.1710572 C6.084,61.7694731 5.891,61.2984421 5.891,60.7569578 C5.891,60.1893051 6.084,59.7122353 6.471,59.3247418 C6.859,58.9312095 7.334,58.739979 7.894,58.739979 C7.894,58.739979 7.334,58.739979 7.894,58.739979 L7.894,58.739979 L7.894,58.739979 Z M23.084,55.7306144 L9.092,55.7306144 L10.603,51.0605636 L21.572,51.0605636 L23.084,55.7306144 L23.084,55.7306144 L23.084,55.7306144 L23.084,55.7306144 Z M23.822,58.739979 C24.361,58.739979 24.832,58.9312095 25.23,59.3247418 C25.627,59.7122353 25.826,60.1893051 25.826,60.7569578 C25.826,61.2984421 25.627,61.7694731 25.23,62.1710572 C24.832,62.5716349 24.361,62.7699107 23.822,62.7699107 C23.26,62.7699107 22.785,62.5716349 22.398,62.1710572 C22.012,61.7694731 21.818,61.2984421 21.818,60.7569578 C21.818,60.1893051 22.012,59.7122353 22.398,59.3247418 C22.785,58.9312095 23.26,58.739979 23.822,58.739979 L23.822,58.739979 Z M23.822,58.739979" id="taxi--body-grey" fill="#67737B" sketch:type="MSShapeGroup"></path>
        <path d="M28.5,25.0737353 L28.5,18.1723263 C28.5,17.5593821 28.293,17.0480921 27.885,16.6314108 C27.473,16.2207684 26.975,16.0144407 26.389,16.0144407 L25.897,16.0144407 L23.893,10.3882374 C23.705,9.89204446 23.465,9.46831787 23.174,9.11403816 C22.879,8.75975845 22.486,8.58161211 21.994,8.58161211 L19.322,8.58161211 L19.322,6.60187292 C19.322,6.43882374 19.269,6.2948976 19.164,6.1751269 C19.059,6.06139506 18.924,6 18.76,6 L13.238,6 C13.076,6 12.941,6.06139506 12.836,6.1751269 C12.728,6.2948976 12.678,6.43882374 12.678,6.60187292 L12.678,8.58161211 L9.865,8.58161211 C9.371,8.58161211 8.978,8.76781026 8.685,9.13416769 C8.393,9.49851217 8.152,9.91619989 7.965,10.3882374 L5.963,16.0144407 L5.647,16.0144407 C5.035,16.0144407 4.525,16.2207684 4.115,16.6314108 C3.705,17.0480921 3.5,17.5593821 3.5,18.1723263 L3.5,25.0737353 L5.33,25.0737353 C5.307,25.3575617 5.307,25.6232715 5.33,25.8658323 C5.353,26.116445 5.363,26.2986172 5.363,26.4183879 L5.363,26.5582881 C5.363,27.2447051 5.609,27.8224225 6.102,28.2924471 C6.596,28.763478 7.18,29 7.859,29 C8.541,29 9.125,28.763478 9.619,28.2924471 C10.109,27.8224225 10.357,27.2447051 10.357,26.5582881 L10.357,26.4183879 C10.357,26.2986172 10.361,26.1637493 10.373,26.0097584 C10.385,25.856774 10.393,25.6756083 10.393,25.4632417 L10.393,25.0737353 L21.432,25.0737353 C21.455,25.4028531 21.467,25.6977507 21.467,25.9564152 L21.467,26.4183879 L21.467,26.5582881 C21.467,27.2447051 21.707,27.8224225 22.187,28.2924471 C22.668,28.763478 23.248,29 23.928,29 C24.631,29 25.225,28.763478 25.703,28.2924471 C26.184,27.8224225 26.424,27.2447051 26.424,26.5582881 L26.424,26.4183879 C26.424,26.2986172 26.437,26.116445 26.461,25.8658323 C26.484,25.6232715 26.494,25.3575617 26.494,25.0737353 L28.5,25.0737353 L28.5,25.0737353 L28.5,25.0737353 L28.5,25.0737353 Z M7.894,18.739979 C8.435,18.739979 8.902,18.9312095 9.303,19.3247418 C9.701,19.7122353 9.898,20.1893051 9.898,20.7569578 C9.898,21.2984421 9.701,21.7694731 9.303,22.1710572 C8.902,22.5716349 8.435,22.7699107 7.894,22.7699107 C7.334,22.7699107 6.859,22.5716349 6.471,22.1710572 C6.084,21.7694731 5.891,21.2984421 5.891,20.7569578 C5.891,20.1893051 6.084,19.7122353 6.471,19.3247418 C6.859,18.9312095 7.334,18.739979 7.894,18.739979 C7.894,18.739979 7.334,18.739979 7.894,18.739979 L7.894,18.739979 L7.894,18.739979 Z M23.084,15.7306144 L9.092,15.7306144 L10.603,11.0605636 L21.572,11.0605636 L23.084,15.7306144 L23.084,15.7306144 L23.084,15.7306144 L23.084,15.7306144 Z M23.822,18.739979 C24.361,18.739979 24.832,18.9312095 25.23,19.3247418 C25.627,19.7122353 25.826,20.1893051 25.826,20.7569578 C25.826,21.2984421 25.627,21.7694731 25.23,22.1710572 C24.832,22.5716349 24.361,22.7699107 23.822,22.7699107 C23.26,22.7699107 22.785,22.5716349 22.398,22.1710572 C22.012,21.7694731 21.818,21.2984421 21.818,20.7569578 C21.818,20.1893051 22.012,19.7122353 22.398,19.3247418 C22.785,18.9312095 23.26,18.739979 23.822,18.739979 L23.822,18.739979 Z M23.822,18.739979" id="taxi--title-grey" fill="#3A434E" sketch:type="MSShapeGroup"></path>
    </g>
</svg>

<svg width="32" height="232" viewBox="0 0 32 232" xmlns="http://www.w3.org/2000/svg" xmlns:sketch="http://www.bohemiancoding.com/sketch/ns"><title>taxi</title><g sketch:type="MSPage" fill="none"><path d="M28.5 145.074v-6.901c0-.613-.207-1.124-.615-1.541-.412-.411-.91-.617-1.496-.617h-.492l-2.004-5.626c-.188-.496-.428-.92-.719-1.274-.295-.354-.688-.532-1.18-.532h-2.672v-1.98c0-.163-.053-.307-.158-.427-.105-.114-.24-.175-.404-.175h-5.522c-.162 0-.297.061-.402.175-.108.12-.158.264-.158.427v1.98h-2.813c-.494 0-.887.186-1.18.553-.292.364-.533.782-.72 1.254l-2.002 5.626h-.316c-.612 0-1.122.206-1.532.617-.41.417-.615.928-.615 1.541v6.901h1.83c-.023.284-.023.55 0 .792.023.251.033.433.033.553v.14c0 .686.246 1.264.739 1.734.494.471 1.078.708 1.757.708.682 0 1.266-.237 1.76-.708.49-.47.738-1.048.738-1.734v-.14l.016-.409c.012-.153.02-.334.02-.547v-.39h11.039c.023.329.035.624.035.883v.6020000000000001c0 .686.24 1.264.72 1.734.481.471 1.061.708 1.741.708.703 0 1.297-.237 1.775-.708.481-.47.721-1.048.721-1.734v-.14c0-.12.013-.302.037-.553.023-.243.033-.508.033-.792h2.006zm-20.606-6.334c.541 0 1.008.191 1.409.585.398.387.595.865.595 1.432 0 .541-.197 1.013-.595 1.414-.401.401-.868.599-1.409.599-.56 0-1.035-.198-1.423-.599-.387-.402-.58-.873-.58-1.414 0-.568.193-1.045.58-1.432.388-.394.863-.585 1.423-.585zm15.19-3.009h-13.992l1.511-4.67h10.969l1.512 4.67zm.738 3.009c.539 0 1.01.191 1.408.585.397.387.596.865.596 1.432 0 .541-.199 1.013-.596 1.414-.398.401-.869.599-1.408.599-.562 0-1.037-.198-1.424-.599-.386-.402-.58-.873-.58-1.414 0-.568.194-1.045.58-1.432.387-.394.862-.585 1.424-.585zm0 0" fill="#206FAC" sketch:type="MSShapeGroup"/><path d="M28.5 105.074v-6.901c0-.613-.207-1.124-.615-1.541-.412-.411-.91-.617-1.496-.617h-.492l-2.004-5.626c-.188-.496-.428-.92-.719-1.274-.295-.354-.688-.532-1.18-.532h-2.672v-1.98c0-.163-.053-.307-.158-.427-.105-.114-.24-.175-.404-.175h-5.522c-.162 0-.297.061-.402.175-.108.12-.158.264-.158.427v1.98h-2.813c-.494 0-.887.186-1.18.553-.292.364-.533.782-.72 1.254l-2.002 5.626h-.316c-.612 0-1.122.206-1.532.617-.41.417-.615.928-.615 1.541v6.901h1.83c-.023.284-.023.55 0 .792.023.251.033.433.033.553v.14c0 .686.246 1.264.739 1.734.494.471 1.078.708 1.757.708.682 0 1.266-.237 1.76-.708.49-.47.738-1.048.738-1.734v-.14l.016-.409c.012-.153.02-.334.02-.547v-.39h11.039c.023.329.035.624.035.883v.6020000000000001c0 .686.24 1.264.72 1.734.481.471 1.061.708 1.741.708.703 0 1.297-.237 1.775-.708.481-.47.721-1.048.721-1.734v-.14c0-.12.013-.302.037-.553.023-.243.033-.508.033-.792h2.006zm-20.606-6.334c.541 0 1.008.191 1.409.585.398.387.595.865.595 1.432 0 .541-.197 1.013-.595 1.414-.401.401-.868.599-1.409.599-.56 0-1.035-.198-1.423-.599-.387-.402-.58-.873-.58-1.414 0-.568.193-1.045.58-1.432.388-.394.863-.585 1.423-.585zm15.19-3.009h-13.992l1.511-4.67h10.969l1.512 4.67zm.738 3.009c.539 0 1.01.191 1.408.585.397.387.596.865.596 1.432 0 .541-.199 1.013-.596 1.414-.398.401-.869.599-1.408.599-.562 0-1.037-.198-1.424-.599-.386-.402-.58-.873-.58-1.414 0-.568.194-1.045.58-1.432.387-.394.862-.585 1.424-.585zm0 0" fill="#fff" sketch:type="MSShapeGroup"/><path d="M28.5 65.074v-6.901c0-.613-.207-1.124-.615-1.541-.412-.411-.91-.617-1.496-.617h-.492l-2.004-5.626c-.188-.496-.428-.92-.719-1.274-.295-.354-.688-.532-1.18-.532h-2.672v-1.98c0-.163-.053-.307-.158-.427-.105-.114-.24-.175-.404-.175h-5.522c-.162 0-.297.061-.402.175-.108.12-.158.264-.158.427v1.98h-2.813c-.494 0-.887.186-1.18.553-.292.364-.533.782-.72 1.254l-2.002 5.626h-.316c-.612 0-1.122.206-1.532.617-.41.417-.615.928-.615 1.541v6.901h1.83c-.023.284-.023.55 0 .792.023.251.033.433.033.553v.14c0 .686.246 1.264.739 1.734.494.471 1.078.708 1.757.708.682 0 1.266-.237 1.76-.708.49-.47.738-1.048.738-1.734v-.14l.016-.409c.012-.153.02-.334.02-.547v-.39h11.039c.023.329.035.624.035.883v.6020000000000001c0 .686.24 1.264.72 1.734.481.471 1.061.708 1.741.708.703 0 1.297-.237 1.775-.708.481-.47.721-1.048.721-1.734v-.14c0-.12.013-.302.037-.553.023-.243.033-.508.033-.792h2.006zm-20.606-6.334c.541 0 1.008.191 1.409.585.398.387.595.865.595 1.432 0 .541-.197 1.013-.595 1.414-.401.401-.868.599-1.409.599-.56 0-1.035-.198-1.423-.599-.387-.402-.58-.873-.58-1.414 0-.568.193-1.045.58-1.432.388-.394.863-.585 1.423-.585zm15.19-3.009h-13.992l1.511-4.67h10.969l1.512 4.67zm.738 3.009c.539 0 1.01.191 1.408.585.397.387.596.865.596 1.432 0 .541-.199 1.013-.596 1.414-.398.401-.869.599-1.408.599-.562 0-1.037-.198-1.424-.599-.386-.402-.58-.873-.58-1.414 0-.568.194-1.045.58-1.432.387-.394.862-.585 1.424-.585zm0 0" fill="#67737B" sketch:type="MSShapeGroup"/><path d="M28.5 25.074v-6.901c0-.613-.207-1.124-.615-1.541-.412-.411-.91-.617-1.496-.617h-.492l-2.004-5.626c-.188-.496-.428-.92-.719-1.274-.295-.354-.688-.532-1.18-.532h-2.672v-1.98c0-.163-.053-.307-.158-.427-.105-.114-.24-.175-.404-.175h-5.522c-.162 0-.297.061-.402.175-.108.12-.158.264-.158.427v1.98h-2.813c-.494 0-.887.186-1.18.553-.292.364-.533.782-.72 1.254l-2.002 5.626h-.316c-.612 0-1.122.206-1.532.617-.41.417-.615.928-.615 1.541v6.901h1.83c-.023.284-.023.55 0 .792.023.251.033.433.033.553v.14c0 .686.246 1.264.739 1.734.494.471 1.078.708 1.757.708.682 0 1.266-.237 1.76-.708.49-.47.738-1.048.738-1.734v-.14l.016-.409c.012-.153.02-.334.02-.547v-.39h11.039c.023.329.035.624.035.883v.6020000000000001c0 .686.24 1.264.72 1.734.481.471 1.061.708 1.741.708.703 0 1.297-.237 1.775-.708.481-.47.721-1.048.721-1.734v-.14c0-.12.013-.302.037-.553.023-.243.033-.508.033-.792h2.006zm-20.606-6.334c.541 0 1.008.191 1.409.585.398.387.595.865.595 1.432 0 .541-.197 1.013-.595 1.414-.401.401-.868.599-1.409.599-.56 0-1.035-.198-1.423-.599-.387-.402-.58-.873-.58-1.414 0-.568.193-1.045.58-1.432.388-.394.863-.585 1.423-.585zm15.19-3.009h-13.992l1.511-4.67h10.969l1.512 4.67zm.738 3.009c.539 0 1.01.191 1.408.585.397.387.596.865.596 1.432 0 .541-.199 1.013-.596 1.414-.398.401-.869.599-1.408.599-.562 0-1.037-.198-1.424-.599-.386-.402-.58-.873-.58-1.414 0-.568.194-1.045.58-1.432.387-.394.862-.585 1.424-.585zm0 0" fill="#3A434E" sketch:type="MSShapeGroup"/></g></svg>
